X: 8
T: The Frog In The Well
R: jig
M: 6/8
L: 1/8
K: Emin
E2E GFE|BEF GFE|D2D FED|ABG FED|
E2E GFE|BEF G2A|BdB BAF|1 GED E3:|2 GED E2B||
|:efe B2B|eBe g2e|fdd add|fdf agf|
ede B2B|eBe g2e|fdB AGF| GED E3:||


Tune 1395	Setting 14761

